public/icon/bonus.svg

<svg width="26" height="33" viewBox="0 0 26 33" fill="none" xmlns="http://www.w3.org/2000/svg">
<path d="M10.611 22.0878C10.6302 22.2773 10.6722 22.4639 10.7359 22.6434C10.8056 22.8173 10.9136 22.9733 11.0518 23.0997C11.2631 23.296 11.5033 23.4587 11.7639 23.5821C11.9981 23.6924 12.2454 23.7722 12.4999 23.8195V20.0085C11.9219 20.0964 11.4703 20.3076 11.1536 20.6382C10.9646 20.8268 10.8183 21.0539 10.7247 21.304C10.6311 21.5541 10.5923 21.8214 10.611 22.0878Z" fill="url(#paint0_linear_104_2417)"/>
<path d="M15.097 28.3271C15.1991 28.1976 15.2774 28.0509 15.3282 27.894C15.3712 27.7821 15.3972 27.6645 15.4053 27.5449V27.5356C15.4207 26.8482 15.2882 26.3527 14.9999 26.0174C14.7849 25.7731 14.4689 25.5843 14.042 25.4495V28.909C14.4484 28.8398 14.8193 28.6347 15.0939 28.3271H15.097Z" fill="url(#paint1_linear_104_2417)"/>
<path d="M18.2741 11.304C20.4081 9.65089 23.2773 6.72545 22.0943 3.57113C21.3113 1.48032 19.3007 0.348212 17.0989 0.743562C15.529 1.02871 13.785 2.17622 12.7793 4.47126C11.7713 2.17622 10.0281 1.02871 8.4636 0.743562C6.2572 0.346671 4.25116 1.47955 3.46662 3.57113C2.2798 6.72545 5.14898 9.65089 7.28295 11.304H0.326172V15.0263H25.2309V11.304H18.2741ZM17.4025 2.41359C18.7897 2.16004 20.012 2.84901 20.5075 4.16685C21.5564 6.96898 17.1713 10.2096 15.3888 11.2238C15.3558 11.2468 15.3249 11.2726 15.2963 11.3009H13.6409V8.79391C13.7118 4.59225 15.6917 2.7234 17.4025 2.41359ZM10.1675 11.223C10.1036 11.1868 3.8034 7.49534 5.05111 4.16685C5.5451 2.84901 6.76275 2.16312 8.15688 2.41359C9.8824 2.72648 11.8892 4.62077 11.9247 8.90643V11.304H10.2608C10.2319 11.2746 10.2007 11.2475 10.1675 11.223Z" fill="url(#paint2_linear_104_2417)"/>
<path d="M2.75391 32.0773H22.805V16.7234H2.75391V32.0773ZM8.90919 26.8653C8.98626 26.7775 9.13269 26.6341 9.45945 26.6565C9.83168 26.6665 10.1122 26.9008 10.153 27.2514C10.2602 27.6892 10.5291 28.0845 10.9661 28.4136C11.3306 28.6902 11.8454 28.866 12.5005 28.9384V25.193C11.6381 25.0936 10.869 24.7899 10.2833 24.3013C9.65524 23.758 9.26103 22.9933 9.18278 22.1666C9.13774 21.7007 9.20295 21.2308 9.37313 20.7948C9.54204 20.3752 9.79907 19.9968 10.1268 19.685C10.4771 19.3539 10.8922 19.0991 11.346 18.9367C11.7188 18.7998 12.1071 18.7094 12.502 18.6678V18.1784C12.4989 18.0727 12.5178 17.9676 12.5576 17.8696C12.5974 17.7717 12.6572 17.6832 12.7332 17.6097C12.8724 17.4787 13.0549 17.4035 13.246 17.3985C13.437 17.3935 13.6232 17.4591 13.769 17.5827C13.8563 17.6553 13.9264 17.7464 13.9741 17.8495C14.0218 17.9525 14.046 18.0649 14.0449 18.1784V18.7518C14.6971 18.8767 15.2979 19.1915 15.7719 19.6565C16.3345 20.2099 16.6312 20.9543 16.6544 21.8683C16.5665 22.3307 16.3268 22.575 16.0031 22.6143C15.6795 22.6536 15.3365 22.471 15.2826 22.0024C15.2626 21.7786 15.2171 21.5578 15.1469 21.3443C15.0784 21.1388 14.9723 20.9478 14.8341 20.7809C14.6752 20.5895 14.4899 20.4216 14.2838 20.2823C14.2082 20.2318 14.1283 20.1882 14.0449 20.1521V24.0516C14.4993 24.1459 14.9342 24.3177 15.3304 24.5595C15.7049 24.7857 16.0274 25.0885 16.2767 25.4481C16.4925 25.7786 16.6395 26.1492 16.7091 26.5378C16.7768 26.8825 16.7955 27.2351 16.7646 27.5851C16.7214 28.2132 16.4509 28.8112 15.9615 29.3522C15.5284 29.8308 14.8826 30.1345 14.0441 30.257V30.7148C14.0484 30.8306 14.0249 30.9457 13.9755 31.0506C13.9262 31.1554 13.8525 31.2469 13.7605 31.3174C13.6162 31.4282 13.4399 31.489 13.258 31.4908C13.0745 31.4903 12.8969 31.4254 12.7563 31.3074C12.6717 31.2345 12.6048 31.1432 12.5607 31.0405C12.5167 30.9378 12.4966 30.8264 12.502 30.7148V30.2778C11.6304 30.1969 10.8636 29.9518 10.2201 29.5465C9.44943 29.0525 8.96854 28.3319 8.79591 27.404C8.7702 27.3117 8.76707 27.2146 8.78679 27.1208C8.80651 27.0271 8.84849 26.9394 8.90919 26.8653Z" fill="url(#paint3_linear_104_2417)"/>
<defs>
<linearGradient id="paint0_linear_104_2417" x1="10.6064" y1="21.914" x2="12.4999" y2="21.914" gradientUnits="userSpaceOnUse">
<stop stop-color="#3068D0"/>
<stop offset="0.5" stop-color="#836BAF"/>
<stop offset="1" stop-color="#978262"/>
</linearGradient>
<linearGradient id="paint1_linear_104_2417" x1="14.042" y1="27.1792" x2="15.4065" y2="27.1792" gradientUnits="userSpaceOnUse">
<stop stop-color="#3068D0"/>
<stop offset="0.5" stop-color="#836BAF"/>
<stop offset="1" stop-color="#978262"/>
</linearGradient>
<linearGradient id="paint2_linear_104_2417" x1="0.326172" y1="7.84565" x2="25.2309" y2="7.84565" gradientUnits="userSpaceOnUse">
<stop stop-color="#3068D0"/>
<stop offset="0.5" stop-color="#836BAF"/>
<stop offset="1" stop-color="#978262"/>
</linearGradient>
<linearGradient id="paint3_linear_104_2417" x1="2.75391" y1="24.4003" x2="22.805" y2="24.4003" gradientUnits="userSpaceOnUse">
<stop stop-color="#3068D0"/>
<stop offset="0.5" stop-color="#836BAF"/>
<stop offset="1" stop-color="#978262"/>
</linearGradient>
</defs>
</svg>

<svg width="26" height="33" fill="none" xmlns="http://www.w3.org/2000/svg"><path d="M10.611 22.088c.02.19.061.376.125.555.07.174.178.33.316.457.211.196.451.359.712.482.234.11.481.19.736.238v-3.811c-.578.087-1.03.299-1.346.63a1.863 1.863 0 0 0-.543 1.449Z" fill="url(#a)"/><path d="M15.097 28.327c.102-.13.18-.276.231-.433.043-.112.07-.23.077-.35v-.008c.016-.688-.117-1.183-.405-1.519-.215-.244-.531-.433-.958-.567v3.459a1.82 1.82 0 0 0 1.052-.582h.003Z" fill="url(#b)"/><path d="M18.274 11.304c2.134-1.653 5.003-4.579 3.82-7.733C21.311 1.481 19.301.348 17.1.744c-1.57.285-3.314 1.432-4.32 3.727C11.771 2.176 10.03 1.03 8.464.744 6.257.347 4.25 1.48 3.467 3.57c-1.187 3.154 1.682 6.08 3.816 7.733H.326v3.722h24.905v-3.722h-6.957Zm-.872-8.89c1.388-.254 2.61.435 3.105 1.753 1.05 2.802-3.336 6.043-5.118 7.057a.703.703 0 0 0-.093.077h-1.655V8.794c.07-4.202 2.05-6.07 3.761-6.38Zm-7.235 8.809c-.063-.036-6.364-3.728-5.116-7.056.494-1.318 1.712-2.004 3.106-1.753 1.725.312 3.732 2.207 3.768 6.492v2.398H10.26a.782.782 0 0 0-.093-.081Z" fill="url(#c)"/><path d="M2.754 32.077h20.051V16.723H2.754v15.354Zm6.155-5.212c.077-.087.224-.23.55-.208.373.01.653.244.694.594.107.438.376.833.813 1.163.365.276.88.452 1.535.524v-3.745c-.863-.1-1.632-.403-2.218-.892a3.224 3.224 0 0 1-1.1-2.134c-.045-.466.02-.936.19-1.372.169-.42.426-.798.754-1.11.35-.331.765-.586 1.219-.748a4.818 4.818 0 0 1 1.156-.27v-.489a.761.761 0 0 1 .231-.568.778.778 0 0 1 1.312.568v.574c.652.125 1.253.44 1.727.905.562.553.86 1.297.882 2.211-.087.463-.327.707-.65.746-.325.04-.668-.143-.721-.612a2.947 2.947 0 0 0-.136-.658 1.752 1.752 0 0 0-.313-.563 2.628 2.628 0 0 0-.55-.499 1.51 1.51 0 0 0-.24-.13v3.9c.455.094.89.266 1.286.508.375.226.697.529.947.888.215.33.363.701.432 1.09.068.345.087.697.056 1.047-.044.628-.314 1.226-.804 1.767-.433.479-1.078.782-1.917.905v.458a.725.725 0 0 1-.284.602.839.839 0 0 1-.502.174.784.784 0 0 1-.502-.184.735.735 0 0 1-.254-.592v-.437c-.872-.081-1.638-.326-2.282-.731-.77-.495-1.251-1.215-1.424-2.143a.597.597 0 0 1 .113-.539Z" fill="url(#d)"/><defs><linearGradient id="a" x1="10.606" y1="21.914" x2="12.5" y2="21.914" gradientUnits="userSpaceOnUse"><stop stop-color="#3068D0"/><stop offset=".5" stop-color="#836BAF"/><stop offset="1" stop-color="#978262"/></linearGradient><linearGradient id="b" x1="14.042" y1="27.179" x2="15.406" y2="27.179" gradientUnits="userSpaceOnUse"><stop stop-color="#3068D0"/><stop offset=".5" stop-color="#836BAF"/><stop offset="1" stop-color="#978262"/></linearGradient><linearGradient id="c" x1=".326" y1="7.846" x2="25.231" y2="7.846" gradientUnits="userSpaceOnUse"><stop stop-color="#3068D0"/><stop offset=".5" stop-color="#836BAF"/><stop offset="1" stop-color="#978262"/></linearGradient><linearGradient id="d" x1="2.754" y1="24.4" x2="22.805" y2="24.4" gradientUnits="userSpaceOnUse"><stop stop-color="#3068D0"/><stop offset=".5" stop-color="#836BAF"/><stop offset="1" stop-color="#978262"/></linearGradient></defs></svg>
